X: 21654
T: Killinaskully Thriller
R: polka
M: 2/4
K: Cmajor
[^A/g2]c ^A/[cg2] ^A/ c/|[c/g2] ^A/c [^A/g2]c/G|
[^A/^f2]c ^A/[c^f2] ^A/ c/|[c/^f2] ^A/c [^A/^f2]c/G|
[^A/f2]c ^A/[cf2] ^A/ c/|[c/f2] ^A/c [^A/f2]c/G|
|:ADAD|ABcc/A/|GGG/A/c|EDD2|
Add c/d/|edcc/A/|GGG/A/c|EFED|
ADAD|ABcc/A/|GGG/A/c|eddc:|

